X:1
T:Danvers, LM
T:Danvers, LM
T:Lowell Mason, 1829
T:Public Domain Courtesy of the Cyber Hymnal™
C:Lowell Mason, 1829
Z:Public Domain
Z:Courtesy of the Cyber Hymnal™
%%score ( 1 2 ) ( 3 4 )
L:1/8
Q:1/4=110
M:2/4
K:F
V:1 treble 
V:2 treble 
V:3 bass 
V:4 bass 
V:1
 F2 | [Ac]2 [GB]2 | [FA]2 [Fd]2 | ([Ac][GB]) ([FA][EG]) | !fermata!F2 [CA]2 | [CG]2 [Ec]2 | %6
 B2 ([Ec][Ff]) | ([Ge][Fd]) ([Ec][D=B]) | !fermata![Ec]2 [Fc]2 | [Fd]3 [Fd] | [Fc]2 (fc) | %11
 ([Ec][GB]) [FA]2 | !fermata![EG]2 ([FA]>[GB]) | ([Ac] [cf]2) [Bd] | (c f2) [FB] | [FA]2 [EG]2 | %16
 !fermata!F2 |] %17
V:2
 F2 | x4 | x4 | x4 | F2 x2 | x4 | (ED) x2 | x4 | x4 | x4 | x2 F2 | x4 | x4 | x4 | A>(G F3/2) x/ | %15
 x4 | F2 |] %17
V:3
 [F,A,]2 | [F,A,]2 [E,G,]2 | [F,C]2 [B,,B,]2 | [C,C]2 [C,C]2 | !fermata![F,C]2 CA, | %5
 [E,G,]2 [C,G,]2 | G,2 ([E,G,][F,D]) | (CB,) (A,G,) | !fermata![C,G,]2 A,2 | [B,D]3 B, | %10
 [A,C]2 [A,C]2 | (CD) (FD) | !fermata![C,C]2 (F>D) | (C>B, A,)[F,E] | ([F,A,]>[G,B,] [A,C])[B,F] | %15
 C2 [C,C]2 | !fermata![F,A,]2 |] %17
V:4
 x2 | x4 | x4 | x4 | x2 F,2 | x4 | (G,F,) x2 | G,2 G,2 | x2 A,2 | x3 B, | x4 | G,2 F,2 | x2 F,2 | %13
 F,2 x2 | x4 | C2 x2 | x2 |] %17

